X: 1
T: Boil The Cabbage Down
M: 4/4
L: 1/8
R: reel
K: Dmaj
|: de | f2 f2 fe d2 | g2 g2 g2 de | f2 f2 fede | f2 e2 e2 de |
f2 f2 fe d/e/f | g2 g2 g2 de | fedf edce | d2 d2 d2 :|
|: dB | AffA ffAf | BggB ggBg | AffA ffAf | ceec eece |
AffA ffAf | BggB gB g2 | fedf edce | d2 d/f/a d'2 :|
